Themes/OneUI/assets/svg/logout-squircle.svg

<?xml version="1.0" encoding="UTF-8" standalone="no"?>
<!-- Created with Vectornator (http://vectornator.io/) -->

<svg
   height="195.67973"
   stroke-miterlimit="10"
   style="clip-rule:evenodd;fill-rule:nonzero;stroke-linecap:round;stroke-linejoin:round"
   version="1.1"
   viewBox="0 0 195.6796 195.67973"
   width="195.6796"
   xml:space="preserve"
   id="svg1128"
   sodipodi:docname="logout-squircle.svg"
   xmlns:inkscape="http://www.inkscape.org/namespaces/inkscape"
   xmlns:sodipodi="http://sodipodi.sourceforge.net/DTD/sodipodi-0.dtd"
   xmlns="http://www.w3.org/2000/svg"
   xmlns:svg="http://www.w3.org/2000/svg"
   xmlns:vectornator="http://vectornator.io"><sodipodi:namedview
   id="namedview1130"
   pagecolor="#ffffff"
   bordercolor="#666666"
   borderopacity="1.0"
   inkscape:showpageshadow="2"
   inkscape:pageopacity="0.0"
   inkscape:pagecheckerboard="0"
   inkscape:deskcolor="#d1d1d1" />
<defs
   id="defs1117" />
<g
   id="Untitled"
   vectornator:layerName="Untitled"
   transform="translate(-0.37495179,-0.85781728)">
<g
   opacity="1"
   id="g1125">
<path
   d="m 194.292,69.5482 c -2.42,-18.2053 -8.839,-34.6216 -20.204,-46.7233 v 0 C 162.091,11.4597 145.57,5.04054 127.364,2.62019 110.001,0.305072 98.2148,0.936469 98.2148,0.936469 c 0,0 -11.7861,-0.526164 -29.1495,1.683721 C 50.8601,5.04054 34.3385,11.4597 22.342,22.8249 v 0 C 10.9769,34.8214 4.55768,51.3429 2.13733,69.5482 -0.177793,86.9116 0.453603,98.6977 0.453603,98.6977 c 0,0 -0.5261633,11.7863 1.683727,29.1493 2.42035,18.205 8.83957,34.622 20.20467,46.723 v 0 c 11.9965,11.366 28.5181,17.785 46.7233,20.205 17.3634,2.315 29.1495,1.684 29.1495,1.684 0,0 11.7862,0.526 29.1492,-1.684 18.206,-2.42 34.622,-8.839 46.724,-20.205 v 0 c 11.365,-12.101 17.784,-28.518 20.204,-46.723 2.315,-17.363 1.684,-29.1493 1.684,-29.1493 0,0 0.631,-11.7861 -1.684,-29.1495 z"
   fill="#5b7e96"
   fill-rule="nonzero"
   opacity="1"
   stroke="none"
   id="path1119" />
<path
   d="m 130.732,73.8627 -8.419,8.4187 10.839,10.9442 H 81.4828 v 11.8914 h 51.7742 l -10.944,10.944 8.419,8.313 25.256,-25.1502 z"
   fill="#fafafa"
   fill-rule="nonzero"
   opacity="1"
   stroke="none"
   id="path1121" />
<path
   d="m 115.894,133.53 c 0,1.052 -0.947,1.999 -2,1.999 H 74.2217 c -1.0523,0 -1.9994,-0.947 -1.9994,-1.999 V 64.7075 c 0,-1.0523 0.9471,-1.9994 1.9994,-1.9994 h 39.6723 c 1.053,0 2,0.9471 2,1.9994 v 2.5256 h 11.996 v -2.5256 c 0,-7.682 -6.314,-13.8907 -13.996,-13.8907 H 74.2217 c -7.682,0 -13.9959,6.2087 -13.9959,13.8907 V 133.53 c 0,7.682 6.3139,13.89 13.9959,13.89 h 39.6723 c 7.682,0 13.996,-6.208 13.996,-13.89 v -2.421 h -11.996 c 0,-0.105 0,2.421 0,2.421 z"
   fill="#fafafa"
   fill-rule="nonzero"
   opacity="1"
   stroke="none"
   id="path1123" />
</g>
</g>
</svg>

<?xml version="1.0" encoding="UTF-8" standalone="no"?>
<!DOCTYPE svg PUBLIC "-//W3C//DTD SVG 1.1//EN" "http://www.w3.org/Graphics/SVG/1.1/DTD/svg11.dtd">
<!-- Created with Vectornator (http://vectornator.io/) -->
<svg height="100%" stroke-miterlimit="10" style="fill-rule:nonzero;clip-rule:evenodd;stroke-linecap:round;stroke-linejoin:round;" version="1.1" viewBox="0 0 196.43 197.395" width="100%" xml:space="preserve" xmlns="http://www.w3.org/2000/svg" xmlns:vectornator="http://vectornator.io" xmlns:xlink="http://www.w3.org/1999/xlink">
<defs/>
<g id="Untitled" vectornator:layerName="Untitled">
<g opacity="1">
<path d="M194.292 69.5482C191.872 51.3429 185.453 34.9266 174.088 22.8249L174.088 22.8249C162.091 11.4597 145.57 5.04054 127.364 2.62019C110.001 0.305072 98.2148 0.936469 98.2148 0.936469C98.2148 0.936469 86.4287 0.410305 69.0653 2.62019C50.8601 5.04054 34.3385 11.4597 22.342 22.8249L22.342 22.8249C10.9769 34.8214 4.55768 51.3429 2.13733 69.5482C-0.177793 86.9116 0.453603 98.6977 0.453603 98.6977C0.453603 98.6977-0.0725603 110.484 2.13733 127.847C4.55768 146.052 10.9769 162.469 22.342 174.57L22.342 174.57C34.3385 185.936 50.8601 192.355 69.0653 194.775C86.4287 197.09 98.2148 196.459 98.2148 196.459C98.2148 196.459 110.001 196.985 127.364 194.775C145.57 192.355 161.986 185.936 174.088 174.57L174.088 174.57C185.453 162.469 191.872 146.052 194.292 127.847C196.607 110.484 195.976 98.6977 195.976 98.6977C195.976 98.6977 196.607 86.9116 194.292 69.5482Z" fill="#5b7e96" fill-rule="nonzero" opacity="1" stroke="none"/>
<path d="M130.732 73.8627L122.313 82.2814L133.152 93.2256L81.4828 93.2256L81.4828 105.117L133.257 105.117L122.313 116.061L130.732 124.374L155.988 99.2238L130.732 73.8627Z" fill="#fafafa" fill-rule="nonzero" opacity="1" stroke="none"/>
<path d="M115.894 133.53C115.894 134.582 114.947 135.529 113.894 135.529L74.2217 135.529C73.1694 135.529 72.2223 134.582 72.2223 133.53L72.2223 64.7075C72.2223 63.6552 73.1694 62.7081 74.2217 62.7081L113.894 62.7081C114.947 62.7081 115.894 63.6552 115.894 64.7075L115.894 67.2331L127.89 67.2331L127.89 64.7075C127.89 57.0255 121.576 50.8168 113.894 50.8168L74.2217 50.8168C66.5397 50.8168 60.2258 57.0255 60.2258 64.7075L60.2258 133.53C60.2258 141.212 66.5397 147.42 74.2217 147.42L113.894 147.42C121.576 147.42 127.89 141.212 127.89 133.53L127.89 131.109L115.894 131.109C115.894 131.004 115.894 133.53 115.894 133.53Z" fill="#fafafa" fill-rule="nonzero" opacity="1" stroke="none"/>
</g>
</g>
</svg>
